X: 2144
T: Şebnem Gibi
C: Zaharya
O: Turkey
F: http://compmusic.upf.edu/node/140
N: huseyni--beste--berefsan--sebnem_gibi--zaharya
N: makam= huseyni
N: form= beste
N: usul= berefsan = 32/8
M: 32/8
L: 1/16
K: C _2/4B ^3/4f  
Q: 1/4=168
%%MIDI tuningsystem comma53
d6 e2 e8  | e4 ^f2 g2 f4 e4  | e8 =f3 e f2 g2  | \
w:   |   |   | 
e2 =f2 e2 d2 d8  | g2 =f2 e2 d2 d2 c2 c2 _1/4B2  | 
w:   |   | 
c2 d2 c4 d4 e4  | z2 e4 ^f2 d4 a2 g2  | \
w:   |   | 
g2 ^f2 f2 e2 e8  | d6 e2 e2 ^f2 d4  | 
w:   |   | 
e2 ^f2 g2 a2 _1/4b2 a2 g2 f2  | e8 =f3 e f2 g2  | \
w:   |   | 
e2 =f2 e2 d2 d8  | g2 =f2 e2 d2 c4 d2 e2  | 
w:   |   | 
g2 =f2 f2 e2 e2 d2 d2 c2  | z2 c2 d2 e2 d2 c2 _1/4B2 d c  | \
w:   |   | 
c8 c4 z4  | d6 e2 e8  | 
w:   |   | 
e2 =f2 e2 d2 d2 c2 d2 e2  | e8 =f3 e f2 g2  | \
w:   |   | 
e2 =f2 e2 d2 d8  | c2 d2 e2 d c c6 _1/4B2  | 
w:   |   | 
_1/4B2 d4 c B B6 A2  | A2 c4 _1/4B A A8  | \
w:   |   | 
e4 d4 e8  | d6 e2 e8  | e4 ^f2 g2 f4 e4  | 
w:   |   |   | 
e8 =f3 e f2 g2  | e2 =f2 e2 d2 d8  | \
w:   |   | 
g2 =f2 e2 d2 d2 c2 c2 _1/4B2  | c2 d2 c4 d4 e4  | 
w:   |   | 
z2 e4 ^f2 d4 a2 g2  | g2 ^f2 f2 e2 e8  | \
w:   |   | 
d6 e2 e2 ^f2 d4  | e2 ^f2 g2 a2 _1/4b2 a2 g2 f2  | 
w:   |   | 
e8 =f3 e f2 g2  | e2 =f2 e2 d2 d8  | \
w:   |   | 
g2 =f2 e2 d2 c4 d2 e2  | g2 =f2 f2 e2 e2 d2 d2 c2  | 
w:   |   | 
z2 c2 d2 e2 d2 c2 _1/4B2 d c  | c8 c4 z4  | \
w:   |   | 
d6 e2 e8  | e2 =f2 e2 d2 d2 c2 d2 e2  | 
w:   |   | 
e8 =f3 e f2 g2  | e2 =f2 e2 d2 d8  | \
w:   |   | 
c2 d2 e2 d c c6 _1/4B2  | _1/4B2 d4 c B B6 A2  | 
w:   |   | 
A2 c4 _1/4B A A8  | ^f4 ^e4 f8  | ^e4 ^f4 f8  | \
w:   |   |   | 
g6 a2 a2 g2 g2 ^f2  | ^f2 g2 f2 ^e2 f4 c'2 _1/4b2  | 
w:   |   | 
a8 a4 g2 =f2  | e8 e2 ^f2 g2 f2  | z2 _1/4b2 a2 g2 ^f4 e4  | \
w:   |   |   | 
e2 g2 ^f2 e2 d3 ^c d2 e2  | 
w:   | 
e8 e4 z4  | ^g4 a4 a8  | ^g2 a2 _1/4b2 ^c'2 b a g ^1/4f g2 a2  | \
w:   |   |   | 
^g2 a2 g2 ^1/4f2 _1/4b2 a2 g2 f2  | 
w:   | 
e8 e4 z4  | e3 d ^c2 d2 e4 ^f4  | z2 g2 ^f2 e2 d4 e2 =f2  | \
w:   |   |   | 
e2 d2 d2 ^c2 c4 =f4  | 
w:   | 
e2 d2 d2 ^c2 c2 _7/8B2 B2 A2  | A ^G ^1/4F2 G2 A2 G2 A2 G4  | \
w:   |   | 
A2 _7/8B2 ^c2 d2 c2 B4 A2  | 
w:   | 
A8 A6 e2  | e8 e4 z4  | g2 =f2 e2 d2 ^c3 _7/8B A4  | \
w:   |   |   | 
A2 z2 ^c2 d2 c3 _7/8B A4  | z2 ^c2 _7/8B2 A2 ^G2 A2 B2 c2  | 
w:   |   | 
^c2 _7/8B4 A2 A4 z4  | d6 e2 e8  | e4 ^f2 g2 f4 e4  | \
w:   |   |   | 
e8 =f3 e f2 g2  | e2 =f2 e2 d2 d8  | 
w:   |   | 
g2 =f2 e2 d2 d2 c2 c2 _1/4B2  | c2 d2 c4 d4 e4  | \
w:   |   | 
z2 e4 ^f2 d4 a2 g2  | g2 ^f2 f2 e2 e8  | 
w:   |   | 
d6 e2 e2 ^f2 d4  | e2 ^f2 g2 a2 _1/4b2 a2 g2 f2  | \
w:   |   | 
e8 =f3 e f2 g2  | e2 =f2 e2 d2 d8  | 
w:   |   | 
g2 =f2 e2 d2 c4 d2 e2  | g2 =f2 f2 e2 e2 d2 d2 c2  | \
w:   |   | 
z2 c2 d2 e2 d2 c2 _1/4B2 d c  | 
w:   | 
c8 c4 z4  | d6 e2 e8  | e2 =f2 e2 d2 d2 c2 d2 e2  | \
w:   |   |   | 
e8 =f3 e f2 g2  | e2 =f2 e2 d2 d8  | 
w:   |   | 
c2 d2 e2 d c c6 _1/4B2  | _1/4B2 d4 c B B6 A2  | \
w:   |   | 
A2 c4 _1/4B A A8  | e4 d4 e8  | 
w:   |   | 
d6 e2 e8  | e4 ^f2 g2 f4 e4  | e8 =f3 e f2 g2  | \
w:   |   |   | 
e2 =f2 e2 d2 d8  | g2 =f2 e2 d2 d2 c2 c2 _1/4B2  | 
w:   |   | 
c2 d2 c4 d4 e4  | z2 e4 ^f2 d4 a2 g2  | \
w:   |   | 
g2 ^f2 f2 e2 e8  | d6 e2 e2 ^f2 d4  | 
w:   |   | 
e2 ^f2 g2 a2 _1/4b2 a2 g2 f2  | e8 =f3 e f2 g2  | \
w:   |   | 
e2 =f2 e2 d2 d8  | g2 =f2 e2 d2 c4 d2 e2  | 
w:   |   | 
g2 =f2 f2 e2 e2 d2 d2 c2  | z2 c2 d2 e2 d2 c2 _1/4B2 d c  | \
w:   |   | 
c8 c4 z4  | d6 e2 e8  | 
w:   |   | 
e2 =f2 e2 d2 d2 c2 d2 e2  | e8 =f3 e f2 g2  | \
w:   |   | 
e2 =f2 e2 d2 d8  | c2 d2 e2 d c c6 _1/4B2  | 
w:   |   | 
_1/4B2 d4 c B B6 A2  | A2 c4 _1/4B A A8  | \
w:   |   | 
^f4 ^e4 f8  | ^e4 ^f4 f8  | g6 a2 a2 g2 g2 ^f2  | 
w:   |   |   | 
^f2 g2 f2 ^e2 f4 c'2 _1/4b2  | a8 a4 g2 =f2  | \
w:   |   | 
e8 e2 ^f2 g2 f2  | z2 _1/4b2 a2 g2 ^f4 e4  | 
w:   |   | 
e2 g2 ^f2 e2 d3 ^c d2 e2  | e8 e4 z4  | \
w:   |   | 
^g4 a4 a8  | ^g2 a2 _1/4b2 ^c'2 b a g ^1/4f g2 a2  | 
w:   |   | 
^g2 a2 g2 ^1/4f2 _1/4b2 a2 g2 f2  | \
w:   | 
e8 e4 z4  | e3 d ^c2 d2 e4 ^f4  | z2 g2 ^f2 e2 d4 e2 =f2  | 
w:   |   |   | 
e2 d2 d2 ^c2 c4 =f4  | e2 d2 d2 ^c2 c2 _7/8B2 B2 A2  | \
w:   |   | 
A ^G ^1/4F2 G2 A2 G2 A2 G4  | 
w:   | 
A2 _7/8B2 ^c2 d2 c2 B4 A2  | A8 A6 e2  | \
w:   |   | 
e8 e4 z4  | g2 =f2 e2 d2 ^c3 _7/8B A4  | \
w:   |   | 
A2 z2 ^c2 d2 c3 _7/8B A4  | 
w:   | 
z2 ^c2 _7/8B2 A2 ^G2 A2 B2 c2  | ^c2 _7/8B4 A2 A4 z4  | \
w:   |   | 
d6 e2 e8  | e4 ^f2 g2 f4 e4  | 
w:   |   | 
e8 =f3 e f2 g2  | e2 =f2 e2 d2 d8  | \
w:   |   | 
g2 =f2 e2 d2 d2 c2 c2 _1/4B2  | c2 d2 c4 d4 e4  | 
w:   |   | 
z2 e4 ^f2 d4 a2 g2  | g2 ^f2 f2 e2 e8  | \
w:   |   | 
d6 e2 e2 ^f2 d4  | e2 ^f2 g2 a2 _1/4b2 a2 g2 f2  | 
w:   |   | 
e8 =f3 e f2 g2  | e2 =f2 e2 d2 d8  | \
w:   |   | 
g2 =f2 e2 d2 c4 d2 e2  | g2 =f2 f2 e2 e2 d2 d2 c2  | 
w:   |   | 
z2 c2 d2 e2 d2 c2 _1/4B2 d c  | c8 c4 z4  | \
w:   |   | 
d6 e2 e8  | e2 =f2 e2 d2 d2 c2 d2 e2  | 
w:   |   | 
e8 =f3 e f2 g2  | e2 =f2 e2 d2 d8  | \
w:   |   | 
c2 d2 e2 d c c6 _1/4B2  | _1/4B2 d4 c B B6 A2  | 
w:   |   | 
A2 c4 _1/4B A A8  | A4 c2 _1/4B A A8  | \
w:   |   | 
d6 e2 e8  | e4 ^f2 g2 f4 e4  | e8 =f3 e f2 g2  | 
w:   |   |   | 
e2 =f2 e2 d2 d8  | g2 =f2 e2 d2 d2 c2 c2 _1/4B2  | \
w:   |   | 
c2 d2 c4 d4 e4  | z2 e4 ^f2 d4 a2 g2  | 
w:   |   | 
g2 ^f2 f2 e2 e8  | d6 e2 e2 ^f2 d4  | \
w:   |   | 
e2 ^f2 g2 a2 _1/4b2 a2 g2 f2  | e8 =f3 e f2 g2  | 
w:   |   | 
e2 =f2 e2 d2 d8  | g2 =f2 e2 d2 c4 d2 e2  | \
w:   |   | 
g2 =f2 f2 e2 e2 d2 d2 c2  | z2 c2 d2 e2 d2 c2 _1/4B2 d c  | 
w:   |   | 
c8 c4 z4  | d6 e2 e8  | e2 =f2 e2 d2 d2 c2 d2 e2  | \
w:   |   |   | 
e8 =f3 e f2 g2  | e2 =f2 e2 d2 d8  | 
w:   |   | 
c2 d2 e2 d c c6 _1/4B2  | _1/4B2 d4 c B B6 A2  | \
w:   |   | 
A2 c4 _1/4B A A8  | A4 c2 _1/4B A A8  | 
w:   |   | 
|


